!!!COM:	Bach, Johann Sebastian
!!!OMV:	Es ist das Heil uns kommen her
!!!OTL:	Es ist das Heil uns kommen her
**kern	**fb	**kern	**kern	**kern	**kern
*part5	*part5	*part4	*part3	*part2	*part1
*staff5	*	*staff4	*staff3	*staff2	*staff1
*I"Continuo	*	*I"Voice	*I"Voice	*I"Voice	*I"Voice
*I'Cont.	*	*I'V	*I'V	*I'V	*I'V
*clefF4	*	*clefF4	*clefGv2	*clefG2	*clefG2
*Trd0c0	*	*	*	*	*
*k[f#c#g#d#]	*	*k[f#c#g#d#]	*k[f#c#g#d#]	*k[f#c#g#d#]	*k[f#c#g#d#]
*M4/4	*	*M4/4	*M4/4	*M4/4	*M4/4
4E	.	4E	4e	4g#	4b
=2	=2	=2	=2	=2	=2
4E	5 4 2	4E	4B	8f#L	4b
.	.	.	.	8g#J	.
4D#	6 5	4D#	4f#	4a	4b
4E	5	4E	4e	8g#L	8bL
.	6	.	.	8aJ	8cc#J
4GG#	6 nr5	4GG#	4e	4b	4ddn
=3	=3	=3	=3	=3	=3
4AA	9	4AA	8eL	8bL	4cc#
.	8	.	8f#J	8aJ	.
8BBL	nr6	8BBL	4gn	8dnL	4b
8C#J	.	8C#J	.	8eJ	.
4Dn;	5	4Dn;	4dn;	4f#;	4a;
4D#X	6	4D#X	4B	4f#	8bL
.	5	.	.	.	8aJ
=4	=4	=4	=4	=4	=4
4.E	.	4.E	8BL	4e	8g#L
.	.	.	8AJ	.	8f#J
.	.	.	4G#	4B	8eL
8D#	.	8D#	.	.	8f#J
8C#L	5	8C#L	4c#	4e	4g#
8D#J	.	8D#J	.	.	.
8EL	6 #4| 2	8EL	4F#	4c#	4a#X
8F#J	.	8F#J	.	.	.
=	=	=	=	=	=
8D#L	6	8D#L	8F#L	4.f#	4b
8BBJ	.	8BBJ	8BJ	.	.
4FF#	4	4F#	4A#X	.	4cc#
.	#	.	.	8e	.
4BB	.	4BB	4F#	4d#	4b
=5:|!	=5:|!	=5:|!	=5:|!	=5:|!	=5:|!
8EL	.	8EL	4G#	8eL	4b
8D#J	.	8D#J	.	8f#J	.
=6	=6	=6	=6	=6	=6
!!linebreak:original
4C#	5	4C#	4c#	8g#L	4ee
.	#6\	.	.	8a#XJ	.
4BB	.	4BB	8d#L	4b	4dd#
.	.	.	8eJ	.	.
8F#L	#	8F#L	4f#	8a#L	4cc#
8G#J	.	8G#J	.	8g#J	.
8AnL	6 4 2	8AnL	4B	4f#	4dd#
8F#J	.	8F#J	.	.	.
=7	=7	=7	=7	=7	=7
8G#L	6	8G#L	4B	8bL	8eeL
8EJ	7 5	8EJ	.	8g#J	8dd#J
4F#	#	4F#	8f#L	4a#X	4cc#
.	.	.	8eJ	.	.
4BB;	.	4BB;	4d#;	4f#;	4b;
8EL	6	8EL	4e	8g#L	4b
8F#J	.	8F#J	.	8anJ	.
=8	=8	=8	=8	=8	=8
8G#L	6	8G#L	8BL	8bL	4ee
8AJ	.	8AJ	8c#J	8aJ	.
4B	6	4B	4dn	8g#L	4b
.	5	.	.	8f#J	.
8BL	#4| 2	8BL	8c#L	8e#XL	4cc#
8AJ	6	8AJ	8d#XJ	8f#J	.
8G#L	#6\ 4 3	8G#L	8e#XL	8g#L	8g#L
8F#J	.	8F#J	8f#J	8c#J	8aJ
=9	=9	=9	=9	=9	=9
4E#X	6 5	4E#X	8g#L	8c#L	4b
.	.	.	8c#J	8g#J	.
4F#	.	4F#	4c#	8g#L	4a
.	.	.	.	8f#J	.
4C#;	4	4C#;	4c#;	8f#L	4g#;
.	#	.	.	8e#X;J	.
8c#L	5 #	8c#L	4c#	4e#	4g#
8BJ	.	8BJ	.	.	.
=10	=10	=10	=10	=10	=10
!!pagebreak:original
8AL	6	8AL	8c#L	8f#L	8f#L
8G#	.	8G#J	8BJ	8enJ	8g#J
8F#	5	4F#	4A	8d#L	4a
8FF#J	6	.	.	8c#J	.
8GG#L	6	8G#L	4e	8BL	4g#
8AAJ	.	8AJ	.	8c#J	.
[4BB	4	4B	8BL	4d#	4f#
.	3	.	8AJ	.	.
=11	=11	=11	=11	=11	=11
8BBL]	nr6 4 2	8BL	4Gn	4e	4c#
8AA#XJ	nr7	8A#XJ	.	.	.
4BB	3	4B	8F#L	4B	4d#
.	.	.	8AJ	.	.
4EE;	.	4E;	4G#X;	4B;	4e;
=||	=||	=||	=||	=||	=||
*-	*-	*-	*-	*-	*-
!!!system-decoration: s1,s2,s3,s4,s5
